docs/img/all-services/6.svg

<svg width="80" height="80" viewBox="0 0 80 80" fill="none" xmlns="http://www.w3.org/2000/svg">
<path d="M33.3407 18.9049L35.1405 16.6642C39.1797 11.706 35.6537 4.25655 29.2826 4.28579C22.9115 4.31563 19.4542 11.7974 23.5373 16.7179L39.9313 36.47L44.5957 32.2925L27.5344 11.9991C25.769 9.8725 25.4136 7.27068 26.0929 4.99603" stroke="#0098D0" stroke-width="2" stroke-miterlimit="10" stroke-linecap="round" stroke-linejoin="round"/>
<path d="M18.9258 36.5667L29.3699 23.7461" stroke="#0098D0" stroke-width="2" stroke-miterlimit="10" stroke-linecap="round" stroke-linejoin="round"/>
<path d="M25.9709 47.7914C32.6001 49.4996 35.718 50.3029 42.3465 52.0105C42.7404 54.7859 42.0233 57.605 40.3516 59.848C33.723 58.1404 30.6051 57.3364 23.9766 55.6287" stroke="#0098D0" stroke-width="2" stroke-miterlimit="10" stroke-linecap="round" stroke-linejoin="round"/>
<path d="M41.3828 58.1529C43.1536 58.6095 44.9243 59.0655 46.6944 59.5221C47.5813 58.3319 47.9621 56.8363 47.7527 55.3638C45.9826 54.9072 44.2118 54.4511 42.4411 53.9945C42.3753 55.4389 42.0146 56.8547 41.3828 58.1529Z" stroke="#0098D0" stroke-width="2" stroke-miterlimit="10" stroke-linecap="round" stroke-linejoin="round"/>
<path d="M47.6328 57.5483L57.5406 60.1018" stroke="#0098D0" stroke-width="2" stroke-miterlimit="10" stroke-linecap="round" stroke-linejoin="round"/>
<path d="M26.8096 44.5021L23.1406 58.9175" stroke="#0098D0" stroke-width="2" stroke-miterlimit="10" stroke-linecap="round" stroke-linejoin="round"/>
<path d="M25.5318 49.518L19.4549 47.952L19.7106 46.9486C19.9087 46.1691 19.4419 45.3758 18.6677 45.1765C17.893 44.9771 17.1046 45.4469 16.9065 46.2258L16.0932 49.4214L15.2799 52.6165C15.0818 53.396 15.5486 54.1892 16.3228 54.3886C17.0969 54.5885 17.8853 54.1187 18.084 53.3392L18.3391 52.336L24.416 53.9014" stroke="#0098D0" stroke-width="2" stroke-miterlimit="10" stroke-linecap="round" stroke-linejoin="round"/>
<path d="M61.2897 58.4126C62.6333 58.6931 63.4965 60.0157 63.2177 61.3671C62.9394 62.719 61.6249 63.588 60.2812 63.3074" stroke="#0098D0" stroke-width="2" stroke-miterlimit="10" stroke-linecap="round" stroke-linejoin="round"/>
<path d="M53.7136 62.5513C51.9185 62.7119 36.5425 63.8423 21.4802 63.7958C17.024 63.7958 17.7726 59.361 8.46515 56.9974C8.09914 56.9049 7.71238 56.9062 7.34459 56.9922L7.26924 57.0099C5.57681 57.4086 4.82816 59.4559 5.91493 60.8203C5.97781 60.8997 6.01873 60.941 6.01873 60.941" stroke="#0098D0" stroke-width="2" stroke-miterlimit="10" stroke-linecap="round" stroke-linejoin="round"/>
<path d="M58.7398 56.8051C58.4527 48.2789 60.2911 38.4623 60.2911 38.4623C60.6678 36.4395 60.1778 34.7115 59.409 33.0606C57.1993 28.3203 56.4714 24.0301 56.4488 20.5259C56.3996 12.6658 63.6967 6.63926 71.2821 8.51819C71.5211 8.57788 71.7626 8.64297 72.0064 8.71579C75.3308 9.70479 77.671 12.7153 78.0127 16.1867C80.115 37.5067 75.7881 59.5986 73.4301 68.382C72.3078 72.5607 68.6073 75.5139 64.3077 75.6584C48.0596 76.2033 36.9066 72.5869 23.487 72.5105L9.35674 72.4795C7.16363 72.4795 6.83142 71.3819 1.62065 64.5024C1.28015 64.053 1.40886 63.4005 1.89648 63.1211L5.47294 61.0691C6.0887 60.7158 6.23819 60.9551 9.58035 62.7487C10.205 63.0841 10.4393 63.8667 10.1024 64.4934C9.77433 65.1028 9.02512 65.3409 8.40877 65.0305L6.60719 64.1246" stroke="#0098D0" stroke-width="2" stroke-miterlimit="10" stroke-linecap="round" stroke-linejoin="round"/>
<path d="M60.293 38.4623H78.205" stroke="#0098D0" stroke-width="2" stroke-miterlimit="10" stroke-linecap="round" stroke-linejoin="round"/>
<path d="M58.8984 49.7831H77.0353" stroke="#0098D0" stroke-width="2" stroke-miterlimit="10" stroke-linecap="round" stroke-linejoin="round"/>
</svg>

<svg width="80" height="80" fill="none" xmlns="http://www.w3.org/2000/svg"><path d="M33.34 18.905l1.8-2.24c4.04-4.959.514-12.408-5.857-12.38-6.372.03-9.829 7.512-5.746 12.433L39.931 36.47l4.665-4.178L27.534 12c-1.765-2.127-2.12-4.728-1.441-7.003m-7.167 31.57l10.444-12.82m-3.4 24.044l16.377 4.22a10.62 10.62 0 01-1.995 7.837l-16.375-4.22" stroke="#0098D0" stroke-width="2" stroke-miterlimit="10" stroke-linecap="round" stroke-linejoin="round"/><path d="M41.383 58.153l5.311 1.37a5.633 5.633 0 001.059-4.16l-5.312-1.368a10.609 10.609 0 01-1.058 4.158zm6.25-.605l9.908 2.554m-30.731-15.6l-3.67 14.415m2.392-9.399l-6.077-1.566.256-1.003a1.457 1.457 0 00-1.043-1.773 1.446 1.446 0 00-1.761 1.05l-.814 3.195-.813 3.196a1.457 1.457 0 001.043 1.772c.774.2 1.562-.27 1.761-1.05l.255-1.003 6.077 1.565m36.874 4.512a2.499 2.499 0 011.928 2.954 2.484 2.484 0 01-2.937 1.94m-6.567-.756c-1.795.16-17.172 1.291-32.234 1.245-4.456 0-3.707-4.435-13.015-6.799a2.378 2.378 0 00-1.12-.005l-.076.018c-1.692.399-2.44 2.446-1.354 3.81a1.5 1.5 0 00.104.121" stroke="#0098D0" stroke-width="2" stroke-miterlimit="10" stroke-linecap="round" stroke-linejoin="round"/><path d="M58.74 56.805c-.287-8.526 1.551-18.343 1.551-18.343.377-2.023-.113-3.75-.882-5.401-2.21-4.74-2.938-9.03-2.96-12.535-.05-7.86 7.248-13.887 14.833-12.008.24.06.48.125.724.198 3.325.989 5.665 4 6.007 7.47 2.102 21.32-2.225 43.413-4.583 52.196-1.122 4.179-4.823 7.132-9.122 7.276-16.248.545-27.401-3.071-40.821-3.148l-14.13-.03c-2.193 0-2.526-1.098-7.736-7.978a.94.94 0 01.275-1.38l3.577-2.053c.616-.353.765-.114 4.107 1.68.625.335.86 1.118.522 1.744a1.272 1.272 0 01-1.693.538l-1.802-.906m53.686-25.663h17.912M58.898 49.783h18.137" stroke="#0098D0" stroke-width="2" stroke-miterlimit="10" stroke-linecap="round" stroke-linejoin="round"/></svg>
